packages/core/src/svgs/stjuno.svg

<svg width="24" height="24" viewBox="0 0 24 24" fill="none" xmlns="http://www.w3.org/2000/svg">
<g clip-path="url(#clip0_31_19395)">
<path d="M0 0H24V24H0V0Z" fill="#E40570"/>
<path fill-rule="evenodd" clip-rule="evenodd" d="M19.2858 12.0001C19.2858 13.9324 18.5182 15.7855 17.1518 17.1518C15.7855 18.5182 13.9324 19.2858 12.0001 19.2858C10.0678 19.2858 8.21463 18.5182 6.84829 17.1518C5.48196 15.7855 4.71436 13.9324 4.71436 12.0001C4.71436 10.0678 5.48196 8.21463 6.84829 6.84829C8.21463 5.48196 10.0678 4.71436 12.0001 4.71436C13.9324 4.71436 15.7855 5.48196 17.1518 6.84829C18.5182 8.21463 19.2858 10.0678 19.2858 12.0001ZM18.8144 12.0001C18.8144 13.8073 18.0964 15.5406 16.8185 16.8185C15.5406 18.0964 13.8073 18.8144 12.0001 18.8144C10.1928 18.8144 8.45957 18.0964 7.18164 16.8185C5.90372 15.5406 5.18578 13.8073 5.18578 12.0001C5.18578 10.1928 5.90372 8.45957 7.18164 7.18164C8.45957 5.90372 10.1928 5.18578 12.0001 5.18578C13.8073 5.18578 15.5406 5.90372 16.8185 7.18164C18.0964 8.45957 18.8144 10.1928 18.8144 12.0001ZM11.5715 15.8572V16.7144H12.4286V15.8572H13.7144V15.0001H12.4286V11.7858L13.9286 13.2858L14.5715 12.6429L13.0715 11.1429H15.0001V10.2858H13.0715L14.5715 8.78578L13.9286 8.14293L12.4286 9.64293V7.71436H11.5715V9.64293L10.0715 8.14293L9.42864 8.78578L10.9286 10.2858H9.00007V11.1429H10.9286L9.42864 12.6429L10.0715 13.2858L11.5715 11.7858V15.0001H10.2858V15.8572H11.5715Z" fill="white"/>
</g>
<defs>
<clipPath id="clip0_31_19395">
<rect width="24" height="24" fill="white"/>
</clipPath>
</defs>
</svg>

<svg xmlns="http://www.w3.org/2000/svg" width="24" height="24" fill="none" viewBox="0 0 24 24"><g clip-path="url(#a)"><path fill="#E40570" d="M0 0h24v24H0z"/><path fill="#fff" fill-rule="evenodd" d="M19.286 12a7.285 7.285 0 1 1-14.57 0 7.285 7.285 0 0 1 14.57 0m-.472 0a6.814 6.814 0 1 1-13.628 0 6.814 6.814 0 0 1 13.628 0m-7.242 3.857v.857h.857v-.857h1.285V15H12.43v-3.214l1.5 1.5.643-.643-1.5-1.5H15v-.857h-1.928l1.5-1.5-.643-.643-1.5 1.5V7.714h-.857v1.929l-1.5-1.5-.643.643 1.5 1.5H9v.857h1.929l-1.5 1.5.643.643 1.5-1.5V15h-1.286v.857z" clip-rule="evenodd"/></g><defs><clipPath id="a"><path fill="#fff" d="M0 0h24v24H0z"/></clipPath></defs></svg>
